flaticon/essential/music-player-1.svg

<svg xmlns="http://www.w3.org/2000/svg" width="32" height="32" viewBox="0 0 24 24">
    <path d="M 22.980469 0.109375 C 22.882812 0.0273438 22.761719 -0.0117188 22.632812 0.00390625 L 9.105469 1.753906 C 8.890625 1.78125 8.726562 1.964844 8.726562 2.1875 L 8.726562 17.726562 C 7.929688 16.769531 6.664062 16.144531 5.238281 16.144531 C 2.832031 16.144531 0.871094 17.90625 0.871094 20.074219 C 0.871094 22.238281 2.832031 24 5.238281 24 C 7.640625 24 9.601562 22.238281 9.601562 20.074219 C 9.601562 19.972656 9.589844 19.871094 9.582031 19.773438 C 9.589844 19.746094 9.601562 19.71875 9.601562 19.6875 L 9.601562 7.035156 L 22.253906 5.394531 L 22.253906 13.363281 C 21.457031 12.40625 20.191406 11.78125 18.761719 11.78125 C 16.359375 11.78125 14.398438 13.542969 14.398438 15.710938 C 14.398438 17.875 16.359375 19.636719 18.761719 19.636719 C 21.148438 19.636719 23.089844 17.90625 23.125 15.765625 C 23.125 15.761719 23.128906 15.757812 23.128906 15.75 L 23.128906 0.4375 C 23.128906 0.3125 23.074219 0.191406 22.980469 0.109375 Z M 5.238281 23.128906 C 3.3125 23.128906 1.746094 21.757812 1.746094 20.074219 C 1.746094 18.390625 3.3125 17.019531 5.238281 17.019531 C 7.160156 17.019531 8.726562 18.390625 8.726562 20.074219 C 8.726562 21.757812 7.160156 23.128906 5.238281 23.128906 Z M 18.761719 18.761719 C 16.839844 18.761719 15.273438 17.394531 15.273438 15.710938 C 15.273438 14.023438 16.839844 12.65625 18.761719 12.65625 C 20.6875 12.65625 22.253906 14.023438 22.253906 15.710938 C 22.253906 17.394531 20.6875 18.761719 18.761719 18.761719 Z M 9.601562 6.152344 L 9.601562 2.570312 L 22.253906 0.933594 L 22.253906 4.515625 Z M 9.601562 6.152344"/>
</svg>

<svg xmlns="http://www.w3.org/2000/svg" width="32" height="32" viewBox="0 0 24 24">
    <path d="M22.98.11a.448.448 0 0 0-.347-.106L9.105 1.754a.435.435 0 0 0-.378.433v15.54c-.797-.957-2.063-1.582-3.489-1.582-2.406 0-4.367 1.761-4.367 3.93C.871 22.237 2.832 24 5.238 24c2.403 0 4.364-1.762 4.364-3.926 0-.101-.012-.203-.02-.3.008-.028.02-.055.02-.087V7.036l12.652-1.64v7.968c-.797-.957-2.063-1.582-3.492-1.582-2.403 0-4.364 1.762-4.364 3.93 0 2.164 1.961 3.926 4.364 3.926 2.386 0 4.328-1.73 4.363-3.871 0-.004.004-.008.004-.016V.437A.439.439 0 0 0 22.98.11zM5.238 23.128c-1.926 0-3.492-1.371-3.492-3.055 0-1.683 1.567-3.054 3.492-3.054 1.922 0 3.489 1.37 3.489 3.054 0 1.684-1.567 3.055-3.489 3.055zm13.524-4.367c-1.922 0-3.489-1.367-3.489-3.051 0-1.688 1.567-3.055 3.489-3.055 1.925 0 3.492 1.367 3.492 3.055 0 1.684-1.567 3.05-3.492 3.05zm-9.16-12.61V2.57L22.254.934v3.582zm0 0"/>
</svg>
